Origami/22x22/apps/Xfwm4CompositeEditor.svg

<svg width="22" height="22" version="1" xmlns="http://www.w3.org/2000/svg">
 <g transform="translate(0,-1)">
  <rect transform="matrix(0,-1,-1,0,0,0)" x="-19" y="-21" width="16" height="20" rx="1" ry="1" style="fill:#d2d2d2"/>
  <path d="m2 3c-0.554 0-1 0.446-1 1v0.5c0-0.554 0.446-1 1-1h18c0.554 0 1 0.446 1 1v-0.5c0-0.554-0.446-1-1-1z" style="fill:#ffffff;opacity:.2"/>
  <path d="m1 18v0.5c0 0.554 0.446 1 1 1h18c0.554 0 1-0.446 1-1v-0.5c0 0.554-0.446 1-1 1h-18c-0.554 0-1-0.446-1-1z" style="opacity:.2"/>
  <path d="m4.0667 6c-0.591 0-1.0667 0.446-1.0667 1v8c0 0.554 0.47573 1 1.0667 1h13.866c0.591 0 1.067-0.446 1.067-1v-8c0-0.554-0.476-1-1.067-1z" style="fill:#4d4d4d"/>
 </g>
 <circle cx="17" cy="16.5" r="5" style="opacity:.2"/>
 <circle cx="17" cy="16" r="5" style="fill:#f3852e"/>
 <path d="m16.244091 13-0.06641 0.791016a2.3784 2.3572 0 0 0 -0.695312 0.398437l-0.724607-0.339844-0.757812 1.300782 0.658203 0.451171a2.3784 2.3572 0 0 0 -0.035156 0.398438 2.3784 2.3572 0 0 0 0.0332 0.398438l-0.656247 0.453124 0.755859 1.298829 0.72461-0.337891a2.3784 2.3572 0 0 0 0.695312 0.396484l0.06836 0.791016h1.511718l0.06836-0.789062a2.3784 2.3572 0 0 0 0.695312 -0.398438l0.72461 0.337891 0.755859-1.298829-0.658203-0.453124a2.3784 2.3572 0 0 0 0.037109 -0.398438 2.3784 2.3572 0 0 0 -0.035156 -0.398438l0.65625-0.451171-0.755859-1.298829-0.722657 0.337891a2.3784 2.3572 0 0 0 -0.697265 -0.396484l-0.066407-0.792969zm0.755859 2a1.0001156 1.000175 0 0 1 1 1 1.0001156 1.000175 0 0 1 -1 1 1.0001156 1.000175 0 0 1 -1 -1 1.0001156 1.000175 0 0 1 1 -1z" style="fill:#ffffff"/>
</svg>

<svg xmlns="http://www.w3.org/2000/svg" width="22" height="22" version="1">
 <g transform="translate(0,-1)">
  <rect style="fill:#d2d2d2" width="16" height="20" x="-19" y="-21" rx="1" ry="1" transform="matrix(0,-1,-1,0,0,0)"/>
  <path style="opacity:0.2;fill:#ffffff" d="M 2,3 C 1.446,3 1,3.446 1,4 v 0.5 c 0,-0.554 0.446,-1 1,-1 h 18 c 0.554,0 1,0.446 1,1 V 4 C 21,3.446 20.554,3 20,3 Z"/>
  <path style="opacity:0.2" d="m 1,18 v 0.5 c 0,0.554 0.446,1 1,1 h 18 c 0.554,0 1,-0.446 1,-1 V 18 c 0,0.554 -0.446,1 -1,1 H 2 C 1.446,19 1,18.554 1,18 Z"/>
  <path style="fill:#4d4d4d" d="M 4.0667,6 C 3.4757,6 3,6.446 3,7 v 8 c 0,0.554 0.47573,1 1.0667,1 h 13.866 c 0.591,0 1.067,-0.446 1.067,-1 V 7 c 0,-0.554 -0.476,-1 -1.067,-1 z"/>
 </g>
 <circle style="opacity:0.2" cx="17" cy="16.5" r="5"/>
 <circle style="fill:#f3852e" cx="17" cy="16" r="5"/>
 <path style="fill:#ffffff" d="m 16.244091,13 -0.06641,0.791016 a 2.3784,2.3572 0 0 0 -0.695312,0.398437 l -0.724607,-0.339844 -0.757812,1.300782 0.658203,0.451171 A 2.3784,2.3572 0 0 0 14.622997,16 a 2.3784,2.3572 0 0 0 0.0332,0.398438 l -0.656247,0.453124 0.755859,1.298829 0.72461,-0.337891 a 2.3784,2.3572 0 0 0 0.695312,0.396484 L 16.244091,19 h 1.511718 l 0.06836,-0.789062 A 2.3784,2.3572 0 0 0 18.519481,17.8125 l 0.72461,0.337891 0.755859,-1.298829 -0.658203,-0.453124 A 2.3784,2.3572 0 0 0 19.378856,16 2.3784,2.3572 0 0 0 19.3437,15.601562 l 0.65625,-0.451171 -0.755859,-1.298829 -0.722657,0.337891 A 2.3784,2.3572 0 0 0 17.824169,13.792969 L 17.757762,13 Z m 0.755859,2 a 1.0001156,1.000175 0 0 1 1,1 1.0001156,1.000175 0 0 1 -1,1 1.0001156,1.000175 0 0 1 -1,-1 1.0001156,1.000175 0 0 1 1,-1 z"/>
</svg>
